X:1
L:1/8
Q:1/4=120
M:6/8
K:C
 e | cdc cGE | cGE C2 e | cdc cGE | dDD D2 e | cdc cGE | GAB cGE | FGF EFE | dDD D2 :: e | 
 c>de/f/ gec | cec gec | fgf efe | add d2 e | c>de/f/ gec | agf gec | fgf efe | dDD D2 :|
